X: 10581
T: The Hamilton March
C: John Turnbull.
O: "Copyright."
%R: march
B: W. Hamilton "Universal Tune-Book" Vol. 1 Glasgow 1844 p.58 #1
S: http://imslp.org/wiki/Hamilton's_Universal_Tune-Book_(Various)
Z: 2016 John Chambers <jc:trillian.mit.edu>
M: C
L: 1/8
K: D
% - - - - - - - - - - - - - - - - - - - - - - - - -
A>A !segno!|:\
A4 FDFA | DE/F/ G/A/B/c/ ddff |\
e4 cAce | A2g>f e/f/e/d/ c/d/c/B/ |\
A4 FDFA | DE/F/ G/A/B/c/ ddff |\
ef/e/ de/d/ c2^g2 | a2a>a a2 :|
|: A>A |\
A2g>g g2A>A | AB/c/ d/e/f/g/ aaff |\
d2d>c Bcde | f2fe/d/ cdef |\
g2A>A A2a>a | ag/f/ e/d/c/B/ AAff |\
BBg>f e>df>e | d2d>d "^Fin."d2 H:|
|: "^Bugle."d>d |\
d2d>d c>Bc>f | d2B>B B2cd |\
e2e>e d>cd>e | d2c>c c2de |\
f4 g2ab | adcd g2f>g |\
f2e2 d2c2 | B2B>B B2"^D.C."A>A :|
% - - - - - - - - - - - - - - - - - - - - - - - - -

%%sep 1 1 500
%%sep 1 1 500

